svg/Pictogram/pictograms-hazard_signs-12.svg

<svg height="103.68" viewBox="0 0 117.829 103.684" width="117.83" xmlns="http://www.w3.org/2000/svg" enable-background="new 0 0 117.829 103.684"><g transform="translate(-43.14-15.657)"><g transform="translate(-226.38-106.36)"><path d="m327.53 122c-1.879.291-3.533 1.402-4.479 3.048l-52.633 91.19c-1.102 1.914-1.119 4.303 0 6.229 1.117 1.933 3.197 3.144 5.447 3.142h105.27c2.25.002 4.328-1.209 5.447-3.142 1.119-1.93 1.1-4.315 0-6.229l-52.635-91.19c-1.292-2.254-3.856-3.45-6.417-3.048" fill="#fdee1c"/><path d="m328.01 124.57c-1.018.158-1.883.771-2.375 1.625l-53 91.81c-.58 1.01-.582 2.308 0 3.312.592 1.02 1.686 1.688 2.875 1.688h106c1.19 0 2.283-.668 2.875-1.688.582-1.01.58-2.303 0-3.312l-53-91.81c-.68-1.185-1.997-1.84-3.375-1.625m.5 10.562l45 79.25h-90.06l45.06-79.25" fill="#010101"/></g><g transform="matrix(.36868 0 0 .36868 321.7 226.32)" fill="#010101"><path d="m-607.5-493.46c.058 10.929 5.822 25.19-1.934 31.563l-7.38-9.562c-1.075 11.241-2.564 22.833-3.625 34.811l-9.875-12.06c2.389 13.12 6.463 28.464-.249 29.688-7.576 6.988-7.438-3.714-10.436-7.189.668 36.09 5.32 49.26 11.248 54.814.433 18.1 15.231 32.684 33.439 32.684 17.576 0 31.943-13.586 33.31-30.811 8.768-6.964 11.173-20.494 10.442-37.19-3.481 4.137-6.961 12.23-10.442 6.876 7.65-12.46 12.592-25.781 0-44.749-1.144 10.733-2.919 18.468-7.687 11.811-.037-12.256-.228-24.515-10.998-34.625 0 0-4.455 8.844-6 12.314-.026.509-.111.908-.313 1.187-.408.556-.201-.032.313-1.187.403-7.644-17.82-39.512-19.811-38.37zm16.437 65.69c.011-.026.037-.013.064 0 .779.31 8.08 19.551 5.562 23.439 2.124-1.65 8.937-6.794 8.937-3.753 0 2.01-.53 5.361-1.065 8.188-2.527-1.724-5.287-3.078-8.248-4.063.132-.101.275-.225.376-.371-.201.146-.403.297-.498.371-2.448-.8-5.03-1.346-7.692-1.557 1.632-7.756 2.601-21.699 2.564-22.06-.011-.097-.011-.163 0-.189zm-9.312 3.811l3.253 18.377c-2.792.064-5.483.477-8.06 1.187 1.027-5.631 2.521-11.951 4.81-19.564zm-19.75 17.816c2.326 1.399 4.079 3.48 5.499 5.931-2.331 1.528-4.429 3.393-6.309 5.435-2.01-3.779-2.331-7.583.81-11.366zm23.813 5.123c15.902 0 28.812 12.908 28.812 28.814 0 15.903-12.91 28.808-28.812 28.808-15.905 0-28.814-12.905-28.814-28.808 0-15.904 12.911-28.814 28.814-28.814zm26.13 4.752c-.079.959-.191 1.881-.313 2.808-.758-.917-1.589-1.791-2.437-2.622l2.75-.186zm-54.32 2.501l2.25.371c-1.091 1.335-1.997 2.76-2.877 4.249-.014-1.537.167-3.084.627-4.62z" stroke="#010101" stroke-width="2"/><path d="m-643.5-340.54h95.51v7.766h-95.51z"/></g></g></svg>

<?xml version="1.0" encoding="iso-8859-1"?>
<!-- Generator: Adobe Illustrator 13.0.2, SVG Export Plug-In . SVG Version: 6.00 Build 14948)  --><svg height="103.684px" id="Layer_1" inkscape:output_extension="org.inkscape.output.svg.inkscape" inkscape:version="0.45+devel" sodipodi:docname="oxidising.svg" sodipodi:version="0.32" space="preserve" style="enable-background:new 0 0 117.829 103.684;" version="1.1" viewBox="0 0 117.829 103.684" width="117.829px" x="0px" xmlns="http://www.w3.org/2000/svg" xmlns:cc="http://creativecommons.org/ns#" xmlns:dc="http://purl.org/dc/elements/1.1/" xmlns:inkscape="http://www.inkscape.org/namespaces/inkscape" xmlns:rdf="http://www.w3.org/1999/02/22-rdf-syntax-ns#" xmlns:sodipodi="http://sodipodi.sourceforge.net/DTD/sodipodi-0.dtd" xmlns:svg="http://www.w3.org/2000/svg" xmlns:xlink="http://www.w3.org/1999/xlink" y="0px">
  <metadata>
    <rdf:RDF xmlns:cc="http://web.resource.org/cc/" xmlns:dc="http://purl.org/dc/elements/1.1/" xmlns:rdf="http://www.w3.org/1999/02/22-rdf-syntax-ns#">
      <cc:Work rdf:about="">
        <dc:title></dc:title>
        <dc:description></dc:description>
        <dc:subject>
          <rdf:Bag>
            <rdf:li></rdf:li>
          </rdf:Bag>
        </dc:subject>
        <dc:publisher>
          <cc:Agent rdf:about="http://openclipart.org">
            <dc:title>Source: Open Clip Art Library, Source: Open Clip Art Library</dc:title>
          </cc:Agent>
        </dc:publisher>
        <dc:creator>
          <cc:Agent>
            <dc:title></dc:title>
          </cc:Agent>
        </dc:creator>
        <dc:rights>
          <cc:Agent>
            <dc:title></dc:title>
          </cc:Agent>
        </dc:rights>
        <dc:date></dc:date>
        <dc:format>image/svg+xml</dc:format>
        <dc:type rdf:resource="http://purl.org/dc/dcmitype/StillImage"/>
        <cc:license rdf:resource="http://en.wikipedia.org/wiki/Public_domain"/>
        <dc:language>en</dc:language>
      </cc:Work>
    </rdf:RDF>
  </metadata>
  <sodipodi:namedview bordercolor="#666666" borderopacity="1.0" gridtolerance="10.0" guidetolerance="10.0" id="base" inkscape:current-layer="Layer_1" inkscape:cx="58.914501" inkscape:cy="51.841499" inkscape:pageopacity="0.0" inkscape:pageshadow="2" inkscape:window-height="649" inkscape:window-width="640" inkscape:window-x="0" inkscape:window-y="0" inkscape:zoom="4.2051253" objecttolerance="10.0" pagecolor="#ffffff" showgrid="false"></sodipodi:namedview>
  <g id="g7912" transform="translate(-43.14243,-15.6573)">
    <g id="use7854" transform="translate(269.2677,205.5671)">
      <g id="g3437_18_" transform="translate(-495.6494,-311.9277)">
        <path d="M327.527,121.998c-1.879,0.291-3.533,1.402-4.479,3.048     l-52.633,91.188c-1.102,1.914-1.119,4.303,0,6.229c1.117,1.933,3.197,3.144,5.447,3.142h105.27     c2.25,0.002,4.328-1.209,5.447-3.142c1.119-1.93,1.1-4.315,0-6.229l-52.635-91.188     C332.652,122.792,330.088,121.596,327.527,121.998z" id="path3424_18_" style="fill:#FDEE1C;" xlink:href="#path3422"/>
        <path d="M328.012,124.572c-1.018,0.158-1.883,0.771-2.375,1.625l-53,91.812     c-0.58,1.011-0.582,2.308,0,3.312c0.592,1.02,1.686,1.688,2.875,1.688h106c1.19,0,2.283-0.668,2.875-1.688     c0.582-1.006,0.58-2.303,0-3.312l-53-91.812C330.707,125.012,329.39,124.357,328.012,124.572z M328.512,135.134l45,79.251H283.45     L328.512,135.134z" id="path3432_18_" style="fill:#010101;"/>
      </g>
    </g>
    <g id="g4396" transform="matrix(0.36868,0,0,0.36868,321.6971,226.3203)">
      <path d="M-607.501-493.46    c0.058,10.929,5.822,25.188-1.934,31.563l-7.38-9.562c-1.075,11.241-2.564,22.833-3.625,34.811l-9.875-12.063    c2.389,13.125,6.463,28.464-0.249,29.688c-7.576,6.988-7.438-3.714-10.436-7.189c0.668,36.087,5.32,49.263,11.248,54.814    c0.433,18.102,15.231,32.684,33.439,32.684c17.576,0,31.943-13.586,33.31-30.811c8.768-6.964,11.173-20.494,10.442-37.189    c-3.481,4.137-6.961,12.23-10.442,6.876c7.65-12.46,12.592-25.781,0-44.749c-1.144,10.733-2.919,18.468-7.687,11.811    c-0.037-12.256-0.228-24.515-10.998-34.625c0,0-4.455,8.844-6.002,12.314c-0.026,0.509-0.111,0.908-0.313,1.187    c-0.408,0.556-0.201-0.032,0.313-1.187C-587.287-462.731-605.51-494.599-607.501-493.46z M-591.064-427.772    c0.011-0.026,0.037-0.013,0.064,0c0.779,0.31,8.079,19.551,5.562,23.439c2.124-1.65,8.937-6.794,8.937-3.753    c0,2.013-0.53,5.361-1.065,8.188c-2.527-1.724-5.287-3.078-8.248-4.063c0.132-0.101,0.275-0.225,0.376-0.371    c-0.201,0.146-0.403,0.297-0.498,0.371c-2.448-0.8-5.033-1.346-7.692-1.557c1.632-7.756,2.601-21.699,2.564-22.065    C-591.075-427.68-591.075-427.746-591.064-427.772z M-600.376-423.961l3.253,18.377c-2.792,0.064-5.483,0.477-8.063,1.187    C-604.159-410.028-602.665-416.348-600.376-423.961z M-620.126-406.145c2.326,1.399,4.079,3.48,5.499,5.931    c-2.331,1.528-4.429,3.393-6.309,5.435C-622.949-398.558-623.267-402.362-620.126-406.145z M-596.313-401.022    c15.902,0,28.812,12.908,28.812,28.814c0,15.903-12.91,28.808-28.812,28.808c-15.905,0-28.814-12.905-28.814-28.808    C-625.127-388.112-612.216-401.022-596.313-401.022z M-570.186-396.27c-0.079,0.959-0.191,1.881-0.313,2.808    c-0.758-0.917-1.589-1.791-2.437-2.622L-570.186-396.27z M-624.502-393.769l2.25,0.371c-1.091,1.335-1.997,2.76-2.877,4.249    C-625.143-390.686-624.962-392.233-624.502-393.769z" id="path4366" style="fill:#010101;stroke:#010101;stroke-width:2;"/>
      <rect height="7.766" id="rect4372" style="fill:#010101;" width="95.515" x="-643.504" y="-340.539"/>
    </g>
  </g>
</svg>
